flaticon/coffee-shop/coffee-grinder.svg

<svg xmlns="http://www.w3.org/2000/svg" width="32" height="32" viewBox="0 0 24 24">
    <path d="M 19.398438 21.601562 L 18.199219 21.601562 L 18.199219 13.601562 L 18.398438 13.601562 C 18.71875 13.601562 19 13.320312 19 13 L 19 11.800781 C 19 11.480469 18.71875 11.199219 18.398438 11.199219 L 14.339844 11.199219 C 15.390625 10.457031 16.101562 9.265625 16.191406 7.898438 C 16.433594 7.761719 16.601562 7.5 16.601562 7.199219 L 16.601562 6.398438 C 16.601562 5.960938 16.238281 5.601562 15.800781 5.601562 L 12.199219 5.601562 L 12.199219 4.800781 L 18.601562 4.800781 C 18.839844 4.800781 19 4.640625 19 4.398438 L 19 3.148438 C 19.6875 2.96875 20.199219 2.34375 20.199219 1.601562 C 20.199219 0.71875 19.480469 0 18.601562 0 C 17.71875 0 17 0.71875 17 1.601562 C 17 2.34375 17.511719 2.96875 18.199219 3.148438 L 18.199219 4 L 11.800781 4 C 11.558594 4 11.398438 4.160156 11.398438 4.398438 L 11.398438 5.601562 L 7.800781 5.601562 C 7.359375 5.601562 7 5.960938 7 6.398438 L 7 7.199219 C 7 7.5 7.164062 7.761719 7.410156 7.898438 C 7.5 9.265625 8.210938 10.457031 9.261719 11.199219 L 5.199219 11.199219 C 4.878906 11.199219 4.601562 11.480469 4.601562 11.800781 L 4.601562 13 C 4.601562 13.320312 4.878906 13.601562 5.199219 13.601562 L 5.398438 13.601562 L 5.398438 21.601562 L 4.199219 21.601562 C 3.960938 21.601562 3.800781 21.761719 3.800781 22 L 3.800781 23.601562 C 3.800781 23.839844 3.960938 24 4.199219 24 L 19.398438 24 C 19.640625 24 19.800781 23.839844 19.800781 23.601562 L 19.800781 22 C 19.800781 21.761719 19.640625 21.601562 19.398438 21.601562 Z M 17.800781 1.601562 C 17.800781 1.160156 18.160156 0.800781 18.601562 0.800781 C 19.039062 0.800781 19.398438 1.160156 19.398438 1.601562 C 19.398438 2.039062 19.039062 2.398438 18.601562 2.398438 C 18.160156 2.398438 17.800781 2.039062 17.800781 1.601562 Z M 7.800781 6.398438 L 15.800781 6.398438 L 15.800781 7.199219 L 7.800781 7.199219 Z M 8.238281 8 L 15.359375 8 C 15.160156 9.800781 13.640625 11.199219 11.800781 11.199219 C 9.960938 11.199219 8.441406 9.800781 8.238281 8 Z M 5.398438 12 L 18.199219 12 L 18.199219 12.800781 L 5.398438 12.800781 Z M 6.199219 13.601562 L 17.398438 13.601562 L 17.398438 21.601562 L 6.199219 21.601562 Z M 19 23.199219 L 4.601562 23.199219 L 4.601562 22.398438 L 19 22.398438 Z M 19 23.199219"/>
    <path d="M 15.398438 16.800781 L 8.199219 16.800781 C 7.960938 16.800781 7.800781 16.960938 7.800781 17.199219 L 7.800781 20.398438 C 7.800781 20.640625 7.960938 20.800781 8.199219 20.800781 L 15.398438 20.800781 C 15.640625 20.800781 15.800781 20.640625 15.800781 20.398438 L 15.800781 17.199219 C 15.800781 16.960938 15.640625 16.800781 15.398438 16.800781 Z M 15 20 L 8.601562 20 L 8.601562 17.601562 L 15 17.601562 Z M 15 20"/>
    <path d="M 9.800781 19.199219 L 13.800781 19.199219 C 14.039062 19.199219 14.199219 19.039062 14.199219 18.800781 C 14.199219 18.558594 14.039062 18.398438 13.800781 18.398438 L 9.800781 18.398438 C 9.558594 18.398438 9.398438 18.558594 9.398438 18.800781 C 9.398438 19.039062 9.558594 19.199219 9.800781 19.199219 Z M 9.800781 19.199219"/>
</svg>

<svg xmlns="http://www.w3.org/2000/svg" width="32" height="32" viewBox="0 0 24 24">
    <path d="M19.398 21.602H18.2v-8h.2c.32 0 .601-.282.601-.602v-1.2a.618.618 0 0 0-.602-.6H14.34a4.388 4.388 0 0 0 1.851-3.302.805.805 0 0 0 .41-.699v-.8a.804.804 0 0 0-.8-.797h-3.602V4.8h6.403c.238 0 .398-.16.398-.403v-1.25c.688-.18 1.2-.804 1.2-1.546C20.2.719 19.48 0 18.601 0 17.719 0 17 .719 17 1.602c0 .742.512 1.367 1.2 1.546V4h-6.4c-.241 0-.402.16-.402.398v1.204H7.801c-.442 0-.801.359-.801.796V7.2c0 .301.164.563.41.7.09 1.367.8 2.558 1.852 3.3H5.199a.614.614 0 0 0-.597.602V13c0 .32.277.602.597.602h.2v8h-1.2c-.238 0-.398.16-.398.398v1.602c0 .238.16.398.398.398h15.2c.242 0 .402-.16.402-.398V22c0-.238-.16-.398-.403-.398zm-1.597-20c0-.442.36-.801.8-.801.438 0 .797.36.797.8a.8.8 0 0 1-.796.797c-.442 0-.801-.359-.801-.796zm-10 4.796h8V7.2h-8zM8.238 8h7.121a3.59 3.59 0 0 1-3.558 3.2c-1.84 0-3.36-1.4-3.563-3.2zm-2.84 4H18.2v.8H5.4zm.801 1.602h11.2v8h-11.2zM19 23.199H4.602v-.8H19zm0 0"/>
    <path d="M15.398 16.8H8.2c-.238 0-.398.16-.398.4v3.198c0 .243.16.403.398.403h7.2c.242 0 .402-.16.402-.403V17.2c0-.238-.16-.398-.403-.398zM15 20H8.602v-2.398H15zm0 0"/>
    <path d="M9.8 19.2h4c.24 0 .4-.16.4-.4 0-.241-.16-.402-.4-.402h-4c-.241 0-.402.16-.402.403 0 .238.16.398.403.398zm0 0"/>
</svg>
